X:0342
M:6/8
L:1/8
Q:3/8=120
K:D
f/g/|a2a a2g|f2f f2e|d2d dcd|ecA A2
f/g/|a2a a2g|f2f f2e|d2d edc|d3  d2:|

